Adwaita++/actions/22/stock_notes.svg

<svg xmlns="http://www.w3.org/2000/svg" width="22" height="22" viewBox="0 0 22 22">
 <defs>
  <style id="current-color-scheme" type="text/css">
   .ColorScheme-Text { color:#444444; } .ColorScheme-Highlight { color:#4285f4; }
  </style>
 </defs>
 <path style="fill:currentColor" class="ColorScheme-Text" d="M 3 1.0097656 C 1.892 1.0097656 1 1.9017656 1 3.0097656 L 1 13.009766 C 1 14.117766 1.892 15.009766 3 15.009766 L 13 15.009766 C 14.108 15.009766 15 14.117766 15 13.009766 L 15 3.0097656 C 15 1.9015656 14.108 1.0097656 13 1.0097656 L 3 1.0097656 z M 4 3 L 12 3 L 12 5 L 4 5 L 4 3 z M 4 7 L 12 7 L 12 9 L 4 9 L 4 7 z M 4 11 L 9 11 L 9 13 L 4 13 L 4 11 z" transform="translate(3 3)"/>
</svg>

<svg height="22" viewBox="0 0 22 22" width="22" xmlns="http://www.w3.org/2000/svg">
  <path d="m3 1.0097656c-1.108 0-2 .892-2 2v10.0000004c0 1.108.892 2 2 2h10c1.108 0 2-.892 2-2v-10.0000004c0-1.1082-.892-2-2-2zm1 1.9902344h8v2h-8zm0 4h8v2h-8zm0 4h5v2h-5z" fill="#444" transform="translate(3 3)"/>
</svg>
